src/assets/images/icons/guide.svg

<svg xmlns="http://www.w3.org/2000/svg" width="29" height="28" viewBox="0 0 29 28" fill="none"><path d="M16.2426 20.0876V24.9348H17.8964C18.0476 24.9348 18.1927 24.9949 18.2996 25.1019C18.4066 25.2088 18.4666 25.3538 18.4666 25.5051V27.4297C18.4666 27.581 18.4066 27.726 18.2996 27.833C18.1927 27.9399 18.0476 28 17.8964 28H11.5579C11.4066 28 11.2616 27.9399 11.1546 27.833C11.0477 27.726 10.9876 27.581 10.9876 27.4297V25.4994C10.9876 25.3481 11.0477 25.2031 11.1546 25.0962C11.2616 24.9892 11.4066 24.9291 11.5579 24.9291H13.2117V20.2644L16.2426 20.0876ZM5.97784 8.22037C6.02978 8.29058 6.09658 8.34845 6.17347 8.38985C6.25036 8.43125 6.33545 8.45517 6.42265 8.45988L24.3176 9.45214C24.4298 9.45909 24.5417 9.43383 24.6401 9.37932C24.7385 9.32481 24.8192 9.24333 24.8729 9.14446C24.9265 9.0456 24.9508 8.93347 24.9428 8.82128C24.9348 8.70909 24.895 8.60151 24.8279 8.5112L23.2084 6.29287C23.1864 6.2659 23.1744 6.23216 23.1744 6.19735C23.1744 6.16255 23.1864 6.12881 23.2084 6.10183L25.0817 4.09165C25.1585 4.00941 25.2102 3.90694 25.2306 3.79631C25.2511 3.68569 25.2395 3.57151 25.1973 3.46724C25.1551 3.36297 25.0839 3.27294 24.9922 3.20777C24.9005 3.1426 24.792 3.10499 24.6797 3.09939L16.2426 2.63462V0.761303C16.2434 0.56064 16.1646 0.367853 16.0235 0.225163C15.8824 0.0824719 15.6905 0.00150732 15.4899 0H13.9616C13.7614 0.00225615 13.5702 0.0835504 13.4298 0.22616C13.2893 0.36877 13.2109 0.561129 13.2117 0.761303V2.4721L6.77907 2.10998C6.69137 2.1048 6.60363 2.11927 6.52224 2.15232C6.44085 2.18537 6.36786 2.23617 6.3086 2.30102L4.02754 4.76741C3.93445 4.868 3.87928 4.99785 3.87147 5.13468C3.86367 5.27151 3.90372 5.40679 3.98477 5.51731L5.97784 8.22037ZM23.6561 18.1601L25.652 15.457C25.733 15.3465 25.7731 15.2112 25.7653 15.0744C25.7575 14.9376 25.7023 14.8077 25.6092 14.7071L23.3281 12.2407C23.2692 12.1763 23.1967 12.1257 23.1158 12.0927C23.0349 12.0596 22.9478 12.0449 22.8605 12.0497L16.2426 12.4147V10.3047L13.2059 10.1365V12.5829L4.95707 13.0391C4.84446 13.0442 4.73567 13.0814 4.64355 13.1464C4.55143 13.2114 4.47985 13.3014 4.43726 13.4057C4.39468 13.5101 4.38287 13.6245 4.40323 13.7354C4.4236 13.8462 4.47528 13.9489 4.55218 14.0314L6.40839 16.0501C6.43039 16.0771 6.44241 16.1108 6.44241 16.1456C6.44241 16.1804 6.43039 16.2142 6.40839 16.2411L4.78599 18.4509C4.71894 18.5412 4.67909 18.6488 4.67114 18.761C4.66318 18.8732 4.68744 18.9853 4.74107 19.0842C4.79469 19.183 4.87545 19.2645 4.97383 19.319C5.07221 19.3735 5.18412 19.3988 5.29638 19.3919L23.1913 18.3996C23.2819 18.3981 23.371 18.3756 23.4516 18.3341C23.5322 18.2926 23.6022 18.233 23.6561 18.1601Z" fill="#1F3D56"></path></svg>

<svg xmlns="http://www.w3.org/2000/svg" width="29" height="28" fill="none"><path d="M16.243 20.088v4.847h1.653a.57.57 0 01.57.57v1.925a.57.57 0 01-.57.57h-6.338a.57.57 0 01-.57-.57V25.5a.57.57 0 01.57-.57h1.654v-4.666l3.03-.176zM5.978 8.22a.593.593 0 00.445.24l17.895.992a.59.59 0 00.51-.94l-1.62-2.22a.151.151 0 010-.19l1.874-2.01a.59.59 0 00-.402-.993l-8.437-.464V.76A.758.758 0 0015.49 0h-1.528a.758.758 0 00-.75.761v1.711L6.779 2.11a.59.59 0 00-.47.191L4.028 4.767a.59.59 0 00-.043.75L5.978 8.22zm17.678 9.94l1.996-2.703a.59.59 0 00-.043-.75l-2.28-2.466a.59.59 0 00-.469-.191l-6.617.365v-2.11l-3.037-.168v2.446l-8.249.456a.59.59 0 00-.405.992l1.856 2.02a.151.151 0 010 .19l-1.622 2.21a.59.59 0 00.51.94l17.895-.991a.59.59 0 00.465-.24z" fill="#1F3D56"/></svg>
